src/components/Icon/svg-icon/main/thumbs-up.svg

<svg xmlns="http://www.w3.org/2000/svg" width="24" height="24"><path fill="#677078" d="M1 21h4V9H1v12zm22-11c0-1.1-.9-2-2-2h-6.31l.95-4.57.03-.32c0-.41-.17-.79-.44-1.06L14.17 1 7.59 7.59C7.22 7.95 7 8.45 7 9v10c0 1.1.9 2 2 2h9c.83 0 1.54-.5 1.84-1.22l3.02-7.05c.09-.23.14-.47.14-.73v-2z"/></svg>

<svg xmlns="http://www.w3.org/2000/svg" width="24" height="24" viewBox="0 0 24 24">
  <path fill="#677078" d="M1,21 L5,21 L5,9 L1,9 L1,21 Z M23,10 C23,8.9 22.1,8 21,8 L14.69,8 L15.64,3.43 L15.67,3.11 C15.67,2.7 15.5,2.32 15.23,2.05 L14.17,1 L7.59,7.59 C7.22,7.95 7,8.45 7,9 L7,19 C7,20.1 7.9,21 9,21 L18,21 C18.83,21 19.54,20.5 19.84,19.78 L22.86,12.73 C22.95,12.5 23,12.26 23,12 L23,10 Z"/>
</svg>
